src/assets/filled/MoneyRemove.svg

<?xml version="1.0" encoding="UTF-8"?>
<svg width="24" height="24" viewBox="0 0 24 24" xmlns="http://www.w3.org/2000/svg">
 <path d="m17 4h-10c-3 0-5 1.5-5 5v3.56c0 0.37 0.38 0.6 0.71 0.45 0.98-0.45 2.11-0.62 3.3-0.41 2.63 0.47 4.56 2.91 4.49 5.58-0.01 0.42-0.07 0.83-0.18 1.23-0.08 0.31 0.17 0.6 0.49 0.6h6.19c3 0 5-1.5 5-5v-6.01c0-3.5-2-5-5-5zm-5 10.5c-1.38 0-2.5-1.12-2.5-2.5s1.12-2.5 2.5-2.5 2.5 1.12 2.5 2.5-1.12 2.5-2.5 2.5zm7.25-0.5c0 0.41-0.34 0.75-0.75 0.75s-0.75-0.34-0.75-0.75v-4c0-0.41 0.34-0.75 0.75-0.75s0.75 0.34 0.75 0.75v4z"/>
 <path d="m5 14c-1.2 0-2.27 0.53-3 1.36-0.62 0.71-1 1.63-1 2.64 0 0.75 0.21 1.46 0.58 2.06 0.69 1.16 1.96 1.94 3.42 1.94 1.01 0 1.93-0.37 2.63-1 0.31-0.26 0.58-0.58 0.79-0.94 0.37-0.6 0.58-1.31 0.58-2.06 0-2.21-1.79-4-4-4zm1.6 5.58c-0.15 0.15-0.34 0.22-0.53 0.22s-0.38-0.07-0.53-0.22l-0.53-0.53-0.55 0.55c-0.15 0.15-0.34 0.22-0.53 0.22s-0.38-0.07-0.53-0.22c-0.29-0.29-0.29-0.77 0-1.06l0.55-0.55-0.53-0.53c-0.29-0.29-0.29-0.77 0-1.06s0.77-0.29 1.06 0l0.53 0.53 0.5-0.5c0.29-0.29 0.77-0.29 1.06 0s0.29 0.77 0 1.06l-0.5 0.5 0.53 0.53c0.29 0.29 0.29 0.76 0 1.06z"/>
</svg>

<svg width="24" height="24" viewBox="0 0 24 24"  xmlns="http://www.w3.org/2000/svg">
<path d="M17 4H7C4 4 2 5.5 2 9V12.56C2 12.93 2.38 13.16 2.71 13.01C3.69 12.56 4.82 12.39 6.01 12.6C8.64 13.07 10.57 15.51 10.5 18.18C10.49 18.6 10.43 19.01 10.32 19.41C10.24 19.72 10.49 20.01 10.81 20.01H17C20 20.01 22 18.51 22 15.01V9C22 5.5 20 4 17 4ZM12 14.5C10.62 14.5 9.5 13.38 9.5 12C9.5 10.62 10.62 9.5 12 9.5C13.38 9.5 14.5 10.62 14.5 12C14.5 13.38 13.38 14.5 12 14.5ZM19.25 14C19.25 14.41 18.91 14.75 18.5 14.75C18.09 14.75 17.75 14.41 17.75 14V10C17.75 9.59 18.09 9.25 18.5 9.25C18.91 9.25 19.25 9.59 19.25 10V14Z" />
<path d="M5 14C3.8 14 2.73 14.53 2 15.36C1.38 16.07 1 16.99 1 18C1 18.75 1.21 19.46 1.58 20.06C2.27 21.22 3.54 22 5 22C6.01 22 6.93 21.63 7.63 21C7.94 20.74 8.21 20.42 8.42 20.06C8.79 19.46 9 18.75 9 18C9 15.79 7.21 14 5 14ZM6.6 19.58C6.45 19.73 6.26 19.8 6.07 19.8C5.88 19.8 5.69 19.73 5.54 19.58L5.01 19.05L4.46 19.6C4.31 19.75 4.12 19.82 3.93 19.82C3.74 19.82 3.55 19.75 3.4 19.6C3.11 19.31 3.11 18.83 3.4 18.54L3.95 17.99L3.42 17.46C3.13 17.17 3.13 16.69 3.42 16.4C3.71 16.11 4.19 16.11 4.48 16.4L5.01 16.93L5.51 16.43C5.8 16.14 6.28 16.14 6.57 16.43C6.86 16.72 6.86 17.2 6.57 17.49L6.07 17.99L6.6 18.52C6.89 18.81 6.89 19.28 6.6 19.58Z" />
</svg>
